resources/svg/dashboard-2-line.svg

<svg fill="currentColor" viewBox="0 0 24 24" xmlns="http://www.w3.org/2000/svg"><path d="M12 2C17.5228 2 22 6.47715 22 12C22 17.5228 17.5228 22 12 22C6.47715 22 2 17.5228 2 12C2 6.47715 6.47715 2 12 2ZM12 4C7.58172 4 4 7.58172 4 12C4 16.4183 7.58172 20 12 20C16.4183 20 20 16.4183 20 12C20 7.58172 16.4183 4 12 4ZM12 5C13.018 5 13.9852 5.21731 14.8579 5.60806L13.2954 7.16944C12.8822 7.05892 12.448 7 12 7C9.23858 7 7 9.23858 7 12C7 13.3807 7.55964 14.6307 8.46447 15.5355L7.05025 16.9497L6.89445 16.7889C5.71957 15.5368 5 13.8525 5 12C5 8.13401 8.13401 5 12 5ZM18.3924 9.14312C18.7829 10.0155 19 10.9824 19 12C19 13.933 18.2165 15.683 16.9497 16.9497L15.5355 15.5355C16.4404 14.6307 17 13.3807 17 12C17 11.552 16.9411 11.1178 16.8306 10.7046L18.3924 9.14312ZM16.2426 6.34315L17.6569 7.75736L13.9325 11.483C13.9765 11.6479 14 11.8212 14 12C14 13.1046 13.1046 14 12 14C10.8954 14 10 13.1046 10 12C10 10.8954 10.8954 10 12 10C12.1788 10 12.3521 10.0235 12.517 10.0675L16.2426 6.34315Z"/></svg>

<svg xmlns="http://www.w3.org/2000/svg" viewBox="0 0 24 24" fill="currentColor">
    <g>
        <path fill="none" d="M0 0H24V24H0z"/>
        <path d="M12 2c5.523 0 10 4.477 10 10s-4.477 10-10 10S2 17.523 2 12 6.477 2 12 2zm0 2c-4.418 0-8 3.582-8 8s3.582 8 8 8 8-3.582 8-8-3.582-8-8-8zm0 1c1.018 0 1.985.217 2.858.608L13.295 7.17C12.882 7.06 12.448 7 12 7c-2.761 0-5 2.239-5 5 0 1.38.56 2.63 1.464 3.536L7.05 16.95l-.156-.161C5.72 15.537 5 13.852 5 12c0-3.866 3.134-7 7-7zm6.392 4.143c.39.872.608 1.84.608 2.857 0 1.933-.784 3.683-2.05 4.95l-1.414-1.414C16.44 14.63 17 13.38 17 12c0-.448-.059-.882-.17-1.295l1.562-1.562zm-2.15-2.8l1.415 1.414-3.724 3.726c.044.165.067.338.067.517 0 1.105-.895 2-2 2s-2-.895-2-2 .895-2 2-2c.179 0 .352.023.517.067l3.726-3.724z"/>
    </g>
</svg>
